C/canada.ca icon.svg

<?xml version="1.0" ?>
<svg xmlns="http://www.w3.org/2000/svg" viewBox="0 0 960.0 960.0">
    <style>
    .cls0 {
        fill: red;
    }

    .cls1 {
        fill: #fff;
    }
    </style>
    <g transform="scale(.1)">
        <path d="M 0.0,2400.0 L 2400.0,2400.0 L 2499.0,2499.0 L 7101.0,2499.0 L 7200.0,2400.0 L 9600.0,2400.0 L 9600.0,7200.0 L 7200.0,7200.0 L 7101.0,7101.0 L 2499.0,7101.0 L 2400.0,7200.0 L 0.0,7200.0 L 0.0,2400.0" class="cls0" />
        <path d="M 2400 2400 H 7200 V 7200 H 2400 Z M 4890 6830 L 4845 5967 A 95 95 0 0 1 4956 5869 L 5815 6020 L 5699 5700 A 65 65 0 0 1 5719 5627 L 6660 4865 L 6448 4766 A 65 65 0 0 1 6414 4687 L 6600 4115 L 6058 4230 A 65 65 0 0 1 5985 4192 L 5880 3945 L 5457 4399 A 65 65 0 0 1 5346 4342 L 5550 3290 L 5223 3479 A 65 65 0 0 1 5132 3452 L 4800 2800 L 4468 3452 A 65 65 0 0 1 4377 3479 L 4050 3290 L 4254 4342 A 65 65 0 0 1 4143 4399 L 3720 3945 L 3615 4192 A 65 65 0 0 1 3542 4230 L 3000 4115 L 3186 4687 A 65 65 0 0 1 3152 4766 L 2940 4865 L 3881 5627 A 65 65 0 0 1 3901 5700 L 3785 6020 L 4644 5869 A 95 95 0 0 1 4755 5967 L 4710 6830 Z" class="cls1" />
    </g>
</svg>

<?xml version="1.0" ?>
<svg xmlns="http://www.w3.org/2000/svg" viewBox="0 0 9600 9600">
	<path d="M0 2400h2400l99 99h4602l99-99h2400v4800H7200l-99-99H2499l-99 99H0z" fill="red"/>
	<path d="M2400 2400h4800v4800H2400zm2490 4430l-45-863a95 95 0 01111-98l859 151-116-320a65 65 0 0120-73l941-762-212-99a65 65 0 01-34-79l186-572-542 115a65 65 0 01-73-38l-105-247-423 454a65 65 0 01-111-57l204-1052-327 189a65 65 0 01-91-27l-332-652-332 652a65 65 0 01-91 27l-327-189 204 1052a65 65 0 01-111 57l-423-454-105 247a65 65 0 01-73 38l-542-115 186 572a65 65 0 01-34 79l-212 99 941 762a65 65 0 0120 73l-116 320 859-151a95 95 0 01111 98l-45 863z" fill="#fff"/>
</svg>
